X: 27386
T: Moats Of Craan, The
R: jig
M: 6/8
K: Dmajor
|:D3 DFA|GFE FDD|EE/E/E EDC|B,CD CB,A,|DA,D DFA|
GFE FDD|1 EE/E/E A,B,C|D3 A,B,C:|2 ECG A,B,C|CD/E/D DE/F/G||
A2 A AB=c|BAG G/A/GE|DD/D/D FDG|DD/D/D ADB|
=c/d/c A ABc|BAG G/A/GE|DE/F/G ABA|GAG GAB|
=ceA ABc|BAG G/A/GE|DD/D/D FDG|DD/D/D ADB|
=c/d/c A ABc|BAG G/A/GE|DE/F/G ABA|GDB, G,3||

